src/32x32/places/folder-gruvbox-material-purple-documents-open.svg

<?xml version="1.0" encoding="UTF-8"?>
<svg width="32" height="32" version="1" xmlns="http://www.w3.org/2000/svg">
 <rect x="2" y="11" width="28" height="18" rx="1.4" ry="1.4" opacity=".2"/>
 <path d="m2 22.6c0 0.776 0.6244 1.4 1.4 1.4h25.2c0.776 0 1.4-0.624 1.4-1.4v-15.2c0-0.7756-0.624-1.4-1.4-1.4h-12.6c-2.1 0-2.8-3-4.9-3h-7.7c-0.7756 0-1.4 0.6244-1.4 1.4" fill="#945e80"/>
 <rect x="2" y="12" width="28" height="15" rx="1.4" ry="1.4" opacity=".2"/>
 <rect x="4" y="8" width="24" height="11" rx="1.4" ry="1.4" fill="#E5DFC8"/>
 <rect x="2" y="13" width="28" height="15" rx="1.4" ry="1.4" fill="#d3869b"/>
 <path d="m3.4004 3c-0.7756 0-1.4004 0.6248-1.4004 1.4004v1c0-0.7756 0.6248-1.4004 1.4004-1.4004h7.6996c2.1 0 2.8 3 4.9 3h12.6c0.775 0 1.4 0.6248 1.4 1.4004v-1c0-0.7756-0.625-1.4004-1.4-1.4004h-12.6c-2.1 0-2.8-3-4.9-3z" fill="#E5DFC8" opacity=".1"/>
 <path d="m12.75 15c-0.416 0-0.75 0.334-0.75 0.75v8.5c0 0.416 0.334 0.75 0.75 0.75h6.5c0.416 0 0.75-0.334 0.75-0.75v-6.75l-2.5-2.5z" fill="#4A413F"/>
</svg>

<svg xmlns="http://www.w3.org/2000/svg" width="32" height="32" version="1">
 <rect style="opacity:0.2" width="28" height="18" x="2" y="11" rx="1.4" ry="1.4"/>
 <path style="fill:#945e80" d="M 2,22.6 C 2,23.376 2.6244,24 3.4,24 H 28.6 C 29.376,24 30,23.376 30,22.6 V 7.4 C 30,6.6244 29.376,6 28.6,6 H 16 C 13.9,6 13.2,3 11.1,3 H 3.4 C 2.6244,3 2,3.6244 2,4.4"/>
 <rect style="opacity:0.2" width="28" height="15" x="2" y="12" rx="1.4" ry="1.4"/>
 <rect style="fill:#E5DFC8" width="24" height="11" x="4" y="8" rx="1.4" ry="1.4"/>
 <rect style="fill:#d3869b" width="28" height="15" x="2" y="13" rx="1.4" ry="1.4"/>
 <path style="opacity:0.1;fill:#E5DFC8" d="M 3.4004,3 C 2.6248,3 2,3.6248 2,4.4004 V 5.4004 C 2,4.6248 2.6248,4 3.4004,4 H 11.1 C 13.2,4 13.9,7 16,7 H 28.6 C 29.375,7 30,7.6248 30,8.4004 V 7.4004 C 30,6.6248 29.375,6 28.6,6 H 16 C 13.9,6 13.2,3 11.1,3 Z"/>
 <path style="fill:#4A413F" d="M 12.75,15 C 12.334,15 12,15.334 12,15.75 v 8.5 c 0,0.416 0.334,0.75 0.75,0.75 h 6.5 C 19.666,25 20,24.666 20,24.25 V 17.5 L 17.5,15 Z"/>
</svg>
